X: 1
T: Hj\"ort Anders' 60 years birthday polska
C: August Slumbae
O: original version
N: The first part may be repeated.
Z: John Chambers <jc@trillian.mit.edu>
M: 3/4
L: 1/16
K: F
%%slurgraces 1
"A"\
[| {c}c2cB A2AB c2cd | c2cB A2c2 f4 \
| c2cB A2c2 ~f2e2 | [d4D4] {A}[B8D8] |
| {B}[B2D2]BA [G2G,2]GA B2Bc | B2BA [G2G,2]A2 B2g2- \
| g2(~f2 e2)c2 e2g2 | f2af (c2A2) F2A2 |
| c2cB A2AB c2cd | c2(~B2 A2)c2 f4 \
| a2ag f2fe d2c2 | {c}[d4D4] {A}[B6D6] B2 |
| B2((3cBA) B2d2 f2d2 | c2cB A2Ac f2a2 \
| g2gf e2ec e2g2 | [f4A4] f8 |]
"B"\
[| {f}fefg a2g2 f2e2 | d^cde f2e2 d2=c2 \
| ~BABc d2c2 (TB2A2) | B4 [G8G,8] |
|: [G2G,2]G^F [G2G,2]A2 B2d2 | c2cB A2Ac f2a2 \
| g2gf e2ec e2g2 |1 f2af c2A2 [A2F2]A2 :|2 [f4A4] [f8A8] |]

%%sep 1 1 500

